X: 15
T: Denis Murphy's
Z: tziguk
S: https://thesession.org/tunes/159#setting53501
R: slide
M: 12/8
L: 1/8
K: Dmaj
|:A2D FED F2A A2f|g2e f2d e2d Bcd|
A2D FED F2A A2f|1a2f efe d3 dcB:|2a2f efe d3 d2A||
|:d2e f3 gfe f3|gfe f2d e2d B2A|
d2e f3 gfe f2g|1a2f efe d3 d2A:|2a2f efe d3 dcB||

%-------------------- TUNE SEPARATOR --------------------%

